X:1
T:Title
%%score { 1 | 2 }
L:1/8
Q:1/4=100
M:6/4
K:Bb
V:1 treble nm="Grand Piano"
V:2 bass 
V:1
 [DF]2 [B,D]2 [CE]2 [EG]3 [DF] [DF]2 | [DB]2 [FA]2 [EG]2 [DF]6 | G2 A2 B2 [=EB]3 [EA] [EB]2 | %3
w: William~J.~Kirkpatrick * * * * *|||
 [Gd]2 [Gc]2 [Gc]2 [Fc]6 | [Fd]2 [=E_d]2 [F=d]2 [DB]4 [DF][DF] | [EG]2 [GB]2 [Ge]2 [Fd]6 | %6
w: |||
 [^Fd]2 [Fc]2 B2 c2 B2 G2 | F2 F2 E2 D6 | F2 [FB]2 [F_Ad]2 [Gd]2 [Gc]2 G2 | A2 B2 c2 [DB]6 | %10
w: ||||
 [DF]2 [DF]2 [DF]2 [_DG]2 .[=DF]4 | [FB]2 [=EB]2 [_EB]2 .[DB]6 | [Fc]2 [Fc]2 [Ac]2 [_Ad]2 .[=Ac]4 | %13
w: |||
 [=Ec]2 [EG]2 [EB]2 .A6 | F2 G2 A2 B3 F F2 | B2 B2 [Gc]2 [^Fd]6 | [Ge]2 [Gd]2 [Gc]2 B3 A B2 | %17
w: ||||
 [=Ec]2 [EG]2 [_EA]2 [DB]6 |] %18
w: |
V:2
 [B,,B,]2 [B,,F,]2 [B,,F,]2 [B,,B,]3 [B,,B,] [B,,B,]2 | [B,,F,]2 [B,,F,]2 [B,,B,]2 [B,,B,]6 | %2
 [E,B,E]2 [E,A,E]2 [E,G,E]2 [C,G,]3 [C,G,] [C,G,]2 | [=E,B,]2 [E,B,]2 [E,B,]2 [F,A,]6 | %4
 [B,,B,]2 [B,,B,]2 [B,,B,]2 [B,,F,]4 [B,,B,][B,,B,] | [E,B,]2 [E,B,]2 [E,B,]2 [B,,B,]6 | %6
 [D,A,]2 [D,A,]2 [G,B,D]2 [E,G,E]2 [E,G,E]2 [E,B,E]2 | [F,B,D]2 [F,A,C]2 [^F,A,C]2 [G,B,]6 | %8
 [D,B,]2 [D,B,]2 [D,B,]2 [E,B,]2 [E,B,]2 [E,CE]2 | [F,CE]2 [F,B,D]2 [F,A,E]2 [B,,F,B,]6 | %10
 [B,,B,]2 [B,,F,]2 [B,,B,]2 [B,,=E,]2 .[B,,F,]4 | [B,,_A,]2 [B,,G,]2 [B,,^F,]2 .[B,,=F,]6 | %12
 [F,A,]2 [F,A,]2 [F,C]2 [F,=B,]2 .[F,C]4 | [C,C]2 [C,C]2 [C,C]2 .[F,CF]6 | %14
 [F,A,]2 [F,B,=E]2 [F,C_E]2 [G,B,D]3 [D,B,] [D,B,]2 | [G,B,D]2 [G,B,G]2[K:bass] [E,G,]2 [D,A,]6 | %16
 [C,C]2 [D,=B,]2 [E,C]2 [F,DF]3 [^F,CE] [G,_B,D]2 | [C,G,]2 [C,C]2 [F,C]2 [B,,B,]6 |] %18

